X:1
T:Title
%%score { ( 1 3 ) | ( 2 4 ) }
L:1/8
M:3/4
K:F
V:1 treble nm="Grand Piano"
V:3 treble 
V:2 bass 
V:4 bass 
V:1
 z2 z2[Q:1/4=128] C2 | G2 A2 G2 | F2 A2 F2 | [FB]2 [Fc]2 [Fd]2 | c4 c2 | d2 e2 d2 | c2 A2 F2 | %7
 D2 E2 F2 | G4 C2 | G2 A2 G2 | F2 A2 A2 | =B2 c2 d2 | c4 c2 | c2 =B2 A2 | G2 E2 C2 | %15
 [A,=B,F]2[K:bass] [G,B,E]2 [F,B,D]2 | [E,C]4[K:treble] [Ec]2 | [Beg]2 [cea]2 [Beg]2 | %18
 [A_e^f]2 [efc']2 [Aef]2 | [_Adf]2 [Adg]2 [Adf]2 |[M:2/4] [Gce]4 |[M:1/4] c2 |[M:3/4] d2 ^c2 d2 | %23
 e2 d2 G2 | c6 |[M:5/8] [CEBc]3 z2 |[M:1/4] C2 |[M:3/4] F2 A2 c2 | d2 c2 C2 | F2 A2 [Gc]2 | %30
 [Fd]4 [Fd]2 | f2 e2 d2 | c2 A2 G2 | F2 E2 D2 | [CEG]4 C2 | F2 A2 c2 | d2 c2 C2 | F2 [FA]2 [Fc]2 | %38
 z2 z2 d2 | f2 e2 d2 | c2 A2 F2 | [DEB]2 [CEA]2 [B,EG]2 |[M:2/4] [A,F]4 |] %43
V:2
 z2 z2 C,2 | [B,CE]2 [CE]2 [B,CE]2 | [A,C]2 [F,CF]2 [_E,A,]2 | [D,B,]2 [C,A,]2 [B,,B,]2 | %4
 [F,A,F]4 [A,CF]2 | [B,FB]2 [CFB]2 [B,FB]2 | [A,F]2[K:bass] [F,F]2 [D,A,C]2 | %7
 [F,G,=B,]2 [E,G,B,]2 [D,F,B,]2 | [C,E,C]4 C,2 | [B,CE]2 [CE]2 [B,CE]2 | [A,C]2 [F,CF]2 [CF]2 | %11
 [DE_A]2 [CEA]2 [=B,EA]2 | [A,EA]4[K:bass] [A,CE]2 | [^F,A,_E]2 [F,=B,E]2 [F,CE]2 | %14
 [G,CE]2 [C,G,C]2 [A,,G,]2 | G,,2 G,,2 G,,2 | C,4 [C,C]2 | [C,,C,]4 [C,C]2 | [C,,C,]4 [C,C]2 | %19
 [C,,C,]4 [C,C]2 |[M:2/4] [C,,C,]4 |[M:1/4][K:treble] [G,CE]2 | %22
[M:3/4] [_A,=B,F]2 [A,B,F]2 [A,B,F]2 | [G,=B,F]2 [G,B,F]2[K:bass] G,2 | C6 |[M:5/8] [C,,C,]3 z2 | %26
[M:1/4] C,2 |[M:3/4] F,2 A,2 C2 | D2 C2 B,2 | [A,C]2 [F,CF]2 [E,C]2 | [D,A,]4 [D,A,]2 | %31
 [DFB]2 [CFB]2 [B,FB]2 | [A,F]2[K:bass] [F,C]2 [E,G,C]2 | [D,A,C]2 [D,A,C]2 [G,=B,]2 | C,4 C,2 | %35
 F,2 A,2 C2 | D2 C2 [C,B,]2 | [_E,A,C]2 [E,C]2 [E,A,]2 | [D,B,]4[K:treble] [B,F]2 | %39
 [G,=B,F]2 [G,B,F]2 [G,B,F]2 | [A,CF]2[K:bass] [F,C]2 [D,A,]2 | C,2 C,2 C,2 |[M:2/4] F,4 |] %43
V:3
 x6 | x6 | x6 | x6 | x6 | x6 | x6 | x6 | x6 | x6 | x6 | x6 | x6 | x6 | x6 | x2[K:bass] x4 | %16
 x4[K:treble] x2 | x6 | x6 | x6 |[M:2/4] x4 |[M:1/4] x2 |[M:3/4] x6 | x6 | z2 _E2 =E2 |[M:5/8] x5 | %26
[M:1/4] x2 |[M:3/4] x6 | x6 | x6 | x6 | x6 | x6 | x6 | x6 | x6 | x6 | x6 | [Ff]4 z A, | x6 | x6 | %41
 x6 |[M:2/4] x4 |] %43
V:4
 x6 | x6 | x6 | x6 | x6 | x6 | x2[K:bass] x4 | x6 | x6 | x6 | x6 | x6 | x4[K:bass] x2 | x6 | x6 | %15
 x6 | x6 | x6 | x6 | x6 |[M:2/4] x4 |[M:1/4][K:treble] x2 |[M:3/4] x6 | x4[K:bass] x2 | %24
 C,2 [^F,,^F,]2 [G,,G,]2 |[M:5/8] x5 |[M:1/4] x2 |[M:3/4] x6 | x6 | x6 | x6 | x6 | x2[K:bass] x4 | %33
 x6 | x6 | x6 | x6 | x6 | x4[K:treble] x2 | x6 | x2[K:bass] x4 | x6 |[M:2/4] x4 |] %43

